X: 21553
T: Kilfenora Lass, The
R: jig
M: 6/8
K: Amixolydian
|:e2A BAG|EAA ABd|e2A ~B2A|BGF GBd|
e2A BAG|EAA ABd|efg dBA|BGF GBd:|
|:g2g efg|eag fed|g2g eag|fdc def|
[1 gfg efg|eag fed|efg dBA|BGF GBd:|
[2 ~g3 a2a|b2a ged|efg dBA|BGF GBd||

